humanity-icon-theme/Humanity/apps/24/preferences-desktop-accessibility.svg

<?xml version="1.0" encoding="UTF-8" standalone="no"?>
<!-- Created with Inkscape (http://www.inkscape.org/) -->
<svg
   xmlns:dc="http://purl.org/dc/elements/1.1/"
   xmlns:cc="http://creativecommons.org/ns#"
   xmlns:rdf="http://www.w3.org/1999/02/22-rdf-syntax-ns#"
   xmlns:svg="http://www.w3.org/2000/svg"
   xmlns="http://www.w3.org/2000/svg"
   xmlns:xlink="http://www.w3.org/1999/xlink"
   xmlns:sodipodi="http://sodipodi.sourceforge.net/DTD/sodipodi-0.dtd"
   xmlns:inkscape="http://www.inkscape.org/namespaces/inkscape"
   version="1.0"
   width="24"
   height="24"
   id="svg3275"
   sodipodi:version="0.32"
   inkscape:version="0.46"
   sodipodi:docname="preferences-desktop-accessibility.svg"
   inkscape:output_extension="org.inkscape.output.svg.inkscape">
  <metadata
     id="metadata29">
    <rdf:RDF>
      <cc:Work
         rdf:about="">
        <dc:format>image/svg+xml</dc:format>
        <dc:type
           rdf:resource="http://purl.org/dc/dcmitype/StillImage" />
      </cc:Work>
    </rdf:RDF>
  </metadata>
  <sodipodi:namedview
     inkscape:window-height="706"
     inkscape:window-width="640"
     inkscape:pageshadow="2"
     inkscape:pageopacity="0.0"
     guidetolerance="10.0"
     gridtolerance="10.0"
     objecttolerance="10.0"
     borderopacity="1.0"
     bordercolor="#666666"
     pagecolor="#ffffff"
     id="base"
     showgrid="false"
     inkscape:zoom="14.672466"
     inkscape:cx="12"
     inkscape:cy="12"
     inkscape:window-x="1"
     inkscape:window-y="46"
     inkscape:current-layer="svg3275" />
  <defs
     id="defs3277">
    <inkscape:perspective
       sodipodi:type="inkscape:persp3d"
       inkscape:vp_x="0 : 12 : 1"
       inkscape:vp_y="0 : 1000 : 0"
       inkscape:vp_z="24 : 12 : 1"
       inkscape:persp3d-origin="12 : 8 : 1"
       id="perspective31" />
    <linearGradient
       id="linearGradient8838">
      <stop
         id="stop8840"
         style="stop-color:#000000;stop-opacity:1"
         offset="0" />
      <stop
         id="stop8842"
         style="stop-color:#000000;stop-opacity:0"
         offset="1" />
    </linearGradient>
    <radialGradient
       cx="62.625"
       cy="4.625"
       r="10.625"
       fx="62.625"
       fy="4.625"
       id="radialGradient2501"
       xlink:href="#linearGradient8838"
       gradientUnits="userSpaceOnUse"
       gradientTransform="matrix(1.1294118,0,0,0.2823525,-58.729414,19.694118)" />
    <linearGradient
       id="linearGradient2490-182-124">
      <stop
         id="stop2788"
         style="stop-color:#1f4b6a;stop-opacity:1"
         offset="0" />
      <stop
         id="stop2790"
         style="stop-color:#4083c2;stop-opacity:1"
         offset="1" />
    </linearGradient>
    <linearGradient
       x1="18.379412"
       y1="44.980297"
       x2="18.379412"
       y2="3.0816143"
       id="linearGradient2498"
       xlink:href="#linearGradient2490-182-124"
       gradientUnits="userSpaceOnUse"
       gradientTransform="matrix(0.5160413,0,0,0.5160413,-0.384991,-0.3849911)" />
    <linearGradient
       id="linearGradient3242-187-536">
      <stop
         id="stop2778"
         style="stop-color:#8badea;stop-opacity:1"
         offset="0" />
      <stop
         id="stop2780"
         style="stop-color:#6396cd;stop-opacity:1"
         offset="0.26238" />
      <stop
         id="stop2782"
         style="stop-color:#3b7caf;stop-opacity:1"
         offset="0.66093999" />
      <stop
         id="stop2784"
         style="stop-color:#194c70;stop-opacity:1"
         offset="1" />
    </linearGradient>
    <radialGradient
       cx="23.895569"
       cy="3.9900031"
       r="20.397499"
       fx="23.895569"
       fy="3.9900031"
       id="radialGradient2496"
       xlink:href="#linearGradient3242-187-536"
       gradientUnits="userSpaceOnUse"
       gradientTransform="matrix(0,1.2316137,-1.6257082,0,18.486581,-28.720783)" />
    <linearGradient
       id="linearGradient4873">
      <stop
         id="stop4875"
         style="stop-color:#ffffff;stop-opacity:1"
         offset="0" />
      <stop
         id="stop4877"
         style="stop-color:#ffffff;stop-opacity:0"
         offset="1" />
    </linearGradient>
    <linearGradient
       x1="63.397362"
       y1="-12.489107"
       x2="63.397362"
       y2="5.4675598"
       id="linearGradient2493"
       xlink:href="#linearGradient4873"
       gradientUnits="userSpaceOnUse"
       gradientTransform="matrix(1.0862728,0,0,1.0862481,-55.56661,15.813638)" />
    <linearGradient
       inkscape:collect="always"
       xlink:href="#linearGradient4873"
       id="linearGradient2407"
       gradientUnits="userSpaceOnUse"
       gradientTransform="matrix(1.0862728,0,0,1.0862481,-55.56661,15.813638)"
       x1="63.397362"
       y1="-12.489107"
       x2="63.397362"
       y2="5.4675598" />
    <radialGradient
       inkscape:collect="always"
       xlink:href="#linearGradient3242-187-536"
       id="radialGradient2410"
       gradientUnits="userSpaceOnUse"
       gradientTransform="matrix(0,1.2316137,-1.6257082,0,18.486581,-28.720783)"
       cx="23.895569"
       cy="3.9900031"
       fx="23.895569"
       fy="3.9900031"
       r="20.397499" />
    <linearGradient
       inkscape:collect="always"
       xlink:href="#linearGradient2490-182-124"
       id="linearGradient2412"
       gradientUnits="userSpaceOnUse"
       gradientTransform="matrix(0.5160413,0,0,0.5160413,-0.384991,-0.3849911)"
       x1="18.379412"
       y1="44.980297"
       x2="18.379412"
       y2="3.0816143" />
    <radialGradient
       inkscape:collect="always"
       xlink:href="#linearGradient8838"
       id="radialGradient2415"
       gradientUnits="userSpaceOnUse"
       gradientTransform="matrix(1.1294118,0,0,0.2823525,-58.729414,19.694118)"
       cx="62.625"
       cy="4.625"
       fx="62.625"
       fy="4.625"
       r="10.625" />
  </defs>
  <path
     style="opacity:0.3;fill:url(#radialGradient2415);fill-opacity:1;fill-rule:evenodd;stroke:none;stroke-width:0.99999988;stroke-linecap:butt;stroke-linejoin:round;marker:none;marker-start:none;marker-mid:none;marker-end:none;stroke-miterlimit:4;stroke-dasharray:none;stroke-dashoffset:0;stroke-opacity:1;visibility:visible;display:inline;overflow:visible"
     id="path8836"
     d="M 24,21 C 24,22.656854 18.627417,24 12,24 C 5.3725828,24 -2.5e-07,22.656854 -2.5e-07,21 C -2.5e-07,19.343146 5.3725828,18 12,18 C 18.627417,18 24,19.343146 24,21 L 24,21 z" />
  <path
     style="fill:url(#radialGradient2410);fill-opacity:1;stroke:url(#linearGradient2412);stroke-width:1.00365424;stroke-linecap:round;stroke-linejoin:round;stroke-miterlimit:4;stroke-dasharray:none;stroke-dashoffset:0;stroke-opacity:1"
     id="path2555"
     d="M 12.000002,1.501785 C 6.207449,1.501785 1.501785,6.2074466 1.501785,11.999999 C 1.501785,17.792553 6.207449,22.498218 12.000002,22.498215 C 17.792552,22.498215 22.498221,17.792553 22.498215,11.999999 C 22.498215,6.2074466 17.792552,1.501785 12.000002,1.501785 z" />
  <path
     style="opacity:0.4;fill:none;fill-opacity:1;fill-rule:nonzero;stroke:url(#linearGradient2407);stroke-width:0.99999994;stroke-miterlimit:4;stroke-dasharray:none;stroke-opacity:1"
     id="path2463"
     d="M 21.499999,11.999663 C 21.499999,17.246537 17.24639,21.499999 12.00012,21.499999 C 6.7533674,21.499999 2.4999999,17.24649 2.4999999,11.999663 C 2.4999999,6.7530318 6.7533674,2.5000007 12.00012,2.5000007 C 17.24639,2.5000007 21.499999,6.7530318 21.499999,11.999663 L 21.499999,11.999663 z" />
  <path
     style="opacity:1;fill:#1f4b6a;fill-opacity:1;stroke:none;color:#000000;fill-rule:nonzero;stroke-width:1;stroke-linecap:butt;stroke-linejoin:miter;marker:none;marker-start:none;marker-mid:none;marker-end:none;stroke-miterlimit:4;stroke-dasharray:none;stroke-dashoffset:0;stroke-opacity:1;visibility:visible;display:inline;overflow:visible;enable-background:accumulate"
     id="path2503"
     d="M 13.623388,6.4886026 C 13.623388,7.3103106 12.928967,7.9772046 12.07334,7.9772046 C 11.217714,7.9772046 10.523291,7.3103106 10.523291,6.4886026 C 10.523291,5.6668946 11.217714,5.0000006 12.07334,5.0000006 C 12.928967,5.0000006 13.623388,5.6668946 13.623388,6.4886026 z M 17.492094,8.0714696 C 17.420401,8.0826256 17.352658,8.1097806 17.294598,8.1506876 L 11.999839,8.9436206 L 6.7335957,8.1397526 C 6.5974637,8.0449306 6.4060677,8.0165356 6.2539567,8.0869346 C 6.1018427,8.1573316 6.0021227,8.3241866 6.0000257,8.4829606 C 5.9981057,8.6417566 6.1037347,8.7787006 6.2539567,8.8525906 L 10.380571,10.109775 L 10.352347,12.995849 L 8.8962307,17.318256 C 8.7559887,17.515081 8.7987327,17.767859 9.0090887,17.899077 C 9.2194537,18.030315 9.5177697,17.990329 9.6580257,17.793482 L 12.007903,13.127865 L 14.313423,17.785419 C 14.438089,17.989569 14.715985,18.060486 14.934141,17.943833 C 15.152296,17.827182 15.228088,17.567143 15.103427,17.362991 L 13.674341,13.021988 L 13.617921,10.304945 L 17.802438,8.8371266 C 17.971509,8.7261816 18.044959,8.5161456 17.97173,8.3355006 C 17.898495,8.1548366 17.697242,8.0495786 17.492079,8.0714696 L 17.492094,8.0714696 z" />
  <path
     style="fill:#ffffff;fill-opacity:1;stroke:none"
     id="path6668"
     d="M 13.623388,7.4886023 C 13.623388,8.3103103 12.928967,8.9772043 12.07334,8.9772043 C 11.217714,8.9772043 10.523291,8.3103103 10.523291,7.4886023 C 10.523291,6.6668943 11.217714,6.0000003 12.07334,6.0000003 C 12.928967,6.0000003 13.623388,6.6668943 13.623388,7.4886023 z M 17.492094,9.0714693 C 17.420401,9.0826253 17.352658,9.1097803 17.294598,9.1506873 L 11.999839,9.9436203 L 6.7335957,9.1397523 C 6.5974637,9.0449303 6.4060677,9.0165353 6.2539567,9.0869343 C 6.1018427,9.1573313 6.0021227,9.3241863 6.0000257,9.4829603 C 5.9981057,9.6417563 6.1037347,9.7787003 6.2539567,9.8525903 L 10.380571,11.109775 L 10.352347,13.995849 L 8.8962307,18.318256 C 8.7559887,18.515081 8.7987327,18.767859 9.0090887,18.899077 C 9.2194537,19.030315 9.5177697,18.990329 9.6580257,18.793482 L 12.007903,14.127865 L 14.313423,18.785419 C 14.438089,18.989569 14.715985,19.060486 14.934141,18.943833 C 15.152296,18.827182 15.228088,18.567143 15.103427,18.362991 L 13.674341,14.021988 L 13.617921,11.304945 L 17.802438,9.8371263 C 17.971509,9.7261813 18.044959,9.5161453 17.97173,9.3355003 C 17.898495,9.1548363 17.697242,9.0495783 17.492079,9.0714693 L 17.492094,9.0714693 z" />
</svg>

<?xml version="1.0" encoding="UTF-8" standalone="no"?>
<!-- Created with Inkscape (http://www.inkscape.org/) -->

<svg
   xmlns:svg="http://www.w3.org/2000/svg"
   xmlns="http://www.w3.org/2000/svg"
   xmlns:xlink="http://www.w3.org/1999/xlink"
   version="1.0"
   width="24"
   height="24"
   id="svg3275">
  <defs
     id="defs3277">
    <linearGradient
       id="linearGradient8838">
      <stop
         id="stop8840"
         style="stop-color:black;stop-opacity:1"
         offset="0" />
      <stop
         id="stop8842"
         style="stop-color:black;stop-opacity:0"
         offset="1" />
    </linearGradient>
    <radialGradient
       cx="62.625"
       cy="4.625"
       r="10.625"
       fx="62.625"
       fy="4.625"
       id="radialGradient2501"
       xlink:href="#linearGradient8838"
       gradientUnits="userSpaceOnUse"
       gradientTransform="matrix(1.1294118,0,0,0.2823525,-58.729414,19.694118)" />
    <linearGradient
       id="linearGradient2490-182-124">
      <stop
         id="stop2788"
         style="stop-color:#1f4b6a;stop-opacity:1"
         offset="0" />
      <stop
         id="stop2790"
         style="stop-color:#4083c2;stop-opacity:1"
         offset="1" />
    </linearGradient>
    <linearGradient
       x1="18.379412"
       y1="44.980297"
       x2="18.379412"
       y2="3.0816143"
       id="linearGradient2498"
       xlink:href="#linearGradient2490-182-124"
       gradientUnits="userSpaceOnUse"
       gradientTransform="matrix(0.5160413,0,0,0.5160413,-0.384991,-0.3849911)" />
    <linearGradient
       id="linearGradient3242-187-536">
      <stop
         id="stop2778"
         style="stop-color:#8badea;stop-opacity:1"
         offset="0" />
      <stop
         id="stop2780"
         style="stop-color:#6396cd;stop-opacity:1"
         offset="0.26238" />
      <stop
         id="stop2782"
         style="stop-color:#3b7caf;stop-opacity:1"
         offset="0.66093999" />
      <stop
         id="stop2784"
         style="stop-color:#194c70;stop-opacity:1"
         offset="1" />
    </linearGradient>
    <radialGradient
       cx="23.895569"
       cy="3.9900031"
       r="20.397499"
       fx="23.895569"
       fy="3.9900031"
       id="radialGradient2496"
       xlink:href="#linearGradient3242-187-536"
       gradientUnits="userSpaceOnUse"
       gradientTransform="matrix(0,1.2316137,-1.6257082,0,18.486581,-28.720783)" />
    <linearGradient
       id="linearGradient4873">
      <stop
         id="stop4875"
         style="stop-color:white;stop-opacity:1"
         offset="0" />
      <stop
         id="stop4877"
         style="stop-color:white;stop-opacity:0"
         offset="1" />
    </linearGradient>
    <linearGradient
       x1="63.397362"
       y1="-12.489107"
       x2="63.397362"
       y2="5.4675598"
       id="linearGradient2493"
       xlink:href="#linearGradient4873"
       gradientUnits="userSpaceOnUse"
       gradientTransform="matrix(1.0862728,0,0,1.0862481,-55.56661,15.813638)" />
  </defs>
  <g
     id="layer1">
    <path
       d="m 24,21 c 0,1.656854 -5.372583,3 -12,3 C 5.3725828,24 -2.5e-7,22.656854 -2.5e-7,21 -2.5e-7,19.343146 5.3725828,18 12,18 c 6.627417,0 12,1.343146 12,3 l 0,0 z"
       id="path8836"
       style="opacity:0.3;fill:url(#radialGradient2501);fill-opacity:1;fill-rule:evenodd;stroke:none;stroke-width:0.99999988;marker:none;visibility:visible;display:inline;overflow:visible" />
    <path
       d="m 12.000002,1.501785 c -5.792553,0 -10.498217,4.7056616 -10.498217,10.498214 0,5.792554 4.705664,10.498219 10.498217,10.498216 5.79255,0 10.498219,-4.705662 10.498213,-10.498216 0,-5.7925524 -4.705663,-10.498214 -10.498213,-10.498214 z"
       id="path2555"
       style="fill:url(#radialGradient2496);fill-opacity:1;stroke:url(#linearGradient2498);stroke-width:1.00365424;stroke-linecap:round;stroke-linejoin:round;stroke-miterlimit:4;stroke-opacity:1;stroke-dasharray:none;stroke-dashoffset:0" />
    <path
       d="m 21.499999,11.999663 c 0,5.246874 -4.253609,9.500336 -9.499879,9.500336 -5.2467526,0 -9.5001201,-4.253509 -9.5001201,-9.500336 0,-5.2466312 4.2533675,-9.4996623 9.5001201,-9.4996623 5.24627,0 9.499879,4.2530311 9.499879,9.4996623 l 0,0 z"
       id="path2463"
       style="opacity:0.4;fill:none;stroke:url(#linearGradient2493);stroke-width:0.99999994;stroke-miterlimit:4;stroke-opacity:1;stroke-dasharray:none" />
    <path
       d="m 13.623388,6.4886026 c 0,0.821708 -0.694421,1.488602 -1.550048,1.488602 -0.855626,0 -1.550049,-0.666894 -1.550049,-1.488602 0,-0.821708 0.694423,-1.488602 1.550049,-1.488602 0.855627,0 1.550048,0.666894 1.550048,1.488602 z m 3.868706,1.582867 c -0.07169,0.011156 -0.139436,0.038311 -0.197496,0.079218 l -5.294759,0.792933 -5.2662433,-0.803868 c -0.136132,-0.094822 -0.327528,-0.123217 -0.479639,-0.052818 -0.152114,0.070397 -0.251834,0.237252 -0.253931,0.396026 -0.00192,0.158796 0.103709,0.29574 0.253931,0.36963 l 4.1266143,1.2571844 -0.02822,2.886074 -1.4561163,4.322407 c -0.140242,0.196825 -0.097498,0.449603 0.112858,0.580821 0.210365,0.131238 0.508681,0.09125 0.648937,-0.105595 l 2.3498773,-4.665617 2.30552,4.657554 c 0.124666,0.20415 0.402562,0.275067 0.620718,0.158414 0.218155,-0.116651 0.293947,-0.37669 0.169286,-0.580842 l -1.429086,-4.341003 -0.05642,-2.717043 4.184517,-1.4678184 c 0.169071,-0.110945 0.242521,-0.320981 0.169292,-0.501626 -0.07324,-0.180664 -0.274488,-0.285922 -0.479651,-0.264031 l 1.5e-5,0 z"
       id="path2503"
       style="opacity:0.2;fill:black;fill-opacity:1;stroke:none" />
    <path
       d="m 13.623388,7.4886023 c 0,0.821708 -0.694421,1.488602 -1.550048,1.488602 -0.855626,0 -1.550049,-0.666894 -1.550049,-1.488602 0,-0.821708 0.694423,-1.488602 1.550049,-1.488602 0.855627,0 1.550048,0.666894 1.550048,1.488602 z m 3.868706,1.582867 c -0.07169,0.011156 -0.139436,0.038311 -0.197496,0.079218 l -5.294759,0.792933 -5.2662433,-0.803868 c -0.136132,-0.094822 -0.327528,-0.123217 -0.479639,-0.052818 -0.152114,0.070397 -0.251834,0.237252 -0.253931,0.396026 -0.00192,0.158796 0.103709,0.29574 0.253931,0.36963 l 4.1266143,1.2571847 -0.02822,2.886074 -1.4561163,4.322407 c -0.140242,0.196825 -0.097498,0.449603 0.112858,0.580821 0.210365,0.131238 0.508681,0.09125 0.648937,-0.105595 l 2.3498773,-4.665617 2.30552,4.657554 c 0.124666,0.20415 0.402562,0.275067 0.620718,0.158414 0.218155,-0.116651 0.293947,-0.37669 0.169286,-0.580842 l -1.429086,-4.341003 -0.05642,-2.717043 4.184517,-1.4678187 c 0.169071,-0.110945 0.242521,-0.320981 0.169292,-0.501626 -0.07324,-0.180664 -0.274488,-0.285922 -0.479651,-0.264031 l 1.5e-5,0 z"
       id="path6668"
       style="fill:white;fill-opacity:1;stroke:none" />
  </g>
</svg>
